modules/stroke-7/icons/map-2.svg

<?xml version="1.0" encoding="utf-8"?>
<!-- Generated by IcoMoon.io -->
<!DOCTYPE svg PUBLIC "-//W3C//DTD SVG 1.1//EN" "http://www.w3.org/Graphics/SVG/1.1/DTD/svg11.dtd">
<svg version="1.1" xmlns="http://www.w3.org/2000/svg" xmlns:xlink="http://www.w3.org/1999/xlink" width="25" height="32" viewBox="0 0 25 32">
<g id="icomoon-ignore">
</g>
<path d="M16 17.333l-3.2-1.813v-6.507c1.813-0.267 3.2-1.813 3.2-3.68 0-2.080-1.653-3.733-3.733-3.733s-3.733 1.653-3.733 3.733c0 1.867 1.387 3.413 3.2 3.68v5.867l-3.2-1.813-8.533 3.467v13.067l8.533-3.467 7.467 4.267 8.533-4.267v-13.067l-8.533 4.267zM7.467 25.44l-6.4 2.56v-10.773l6.4-2.613v10.827zM9.6 5.333c0-1.493 1.173-2.667 2.667-2.667s2.667 1.173 2.667 2.667c0 1.493-1.173 2.667-2.667 2.667s-2.667-1.173-2.667-2.667zM16 29.227l-7.467-4.267v-10.667l3.2 1.813v4.693h1.067v-4.107l3.2 1.813v10.72zM23.467 25.493l-6.4 3.2v-10.667l6.4-3.2v10.667z" fill="#000000"></path>
</svg>

<svg xmlns="http://www.w3.org/2000/svg" width="25" height="32" viewBox="0 0 25 32"><path d="M16 17.333l-3.2-1.813V9.013C14.613 8.746 16 7.2 16 5.333c0-2.08-1.653-3.733-3.733-3.733S8.534 3.253 8.534 5.333c0 1.867 1.387 3.413 3.2 3.68v5.867l-3.2-1.813-8.533 3.467v13.067l8.533-3.467 7.467 4.267 8.533-4.267V13.067l-8.533 4.267zM7.467 25.44L1.067 28V17.227l6.4-2.613v10.827zM9.6 5.333c0-1.493 1.173-2.667 2.667-2.667s2.667 1.173 2.667 2.667C14.934 6.826 13.761 8 12.267 8S9.6 6.827 9.6 5.333zM16 29.227L8.533 24.96V14.293l3.2 1.813v4.693H12.8v-4.107l3.2 1.813v10.72zm7.467-3.734l-6.4 3.2V18.026l6.4-3.2v10.667z"/></svg>
